X: 41250
T: Try Pot, The
R: polka
M: 2/4
K: Dmajor
|:A2 BA|FA DA|FA f>e|dB BA|
A2 BA|FA DA|FA AB|1 d2 dB:|2 d2 dA||
d>e fg|af fe|dB AB|dB BA|
d>e fg|af fe|dB AB|d2 dA|
d>e fg|af bf|af ef|dB BA|
d>e fg|af a>f|ed AB|d2 dB||

